X:15943
T:Star of Munster, The
R:Reel
O:Ireland
M:4/4
K:C
AB|\
c2Ac BAGB|AGED GED2|EAAB cBcd|eaaf gfed|\
cBAc BAGB|
AGED GED2|\
EAAB cBcd|edcB A4:: \
eaag ageg|aebe aede|\
dg (3ggg gede|
gdad gede|\
ea (3aaa aede|aebe ae (3eee|\
ge (3eee ae (3eee|bagf gfed:|
